src/main/resources/icons/AllIcons/runConfigurations/toolbarFailed_dark.svg

<!-- Copyright 2000-2021 JetBrains s.r.o. Use of this source code is governed by the Apache 2.0 license that can be found in the LICENSE file. -->
<svg xmlns="http://www.w3.org/2000/svg" width="16" height="16" viewBox="0 0 16 16">
  <path fill="#F0A732" fill-rule="evenodd" d="M9.20446966,8.00000012 L11.7854095,5.41906027 L10.583328,4.2169787 L8.0023881,6.79791856 L5.42144836,4.21697882 L4.2193668,5.41906038 L6.80030654,8.00000012 L4.21936692,10.5809397 L5.42144848,11.7830213 L8.0023881,9.20208168 L10.5833278,11.7830214 L11.7854094,10.5809399 L9.20446966,8.00000012 Z M8.0023881,14.5 C4.41253722,14.5 1.5023881,11.5898509 1.5023881,8 C1.5023881,4.41014913 4.41253722,1.5 8.0023881,1.5 C11.592239,1.5 14.5023881,4.41014913 14.5023881,8 C14.5023881,11.5898509 11.592239,14.5 8.0023881,14.5 Z"/>
</svg>

<svg xmlns="http://www.w3.org/2000/svg" width="16" height="16" viewBox="0 0 16 16"><rect id="frame" width="16" height="16" fill="none"/><path fill="#F0A732" fill-rule="evenodd" d="M9.204 8l2.581-2.58-1.202-1.203-2.58 2.58-2.582-2.58L4.22 5.419 6.8 8l-2.58 2.58 1.201 1.203 2.581-2.58 2.581 2.58 1.202-1.202L9.205 8zm-1.202 6.5a6.5 6.5 0 1 1 0-13 6.5 6.5 0 0 1 0 13z"/></svg>
